svgs/thin/person-skiing-nordic.svg

<svg xmlns="http://www.w3.org/2000/svg" viewBox="0 0 576 512"><!--! Font Awesome Pro 6.3.0 by @fontawesome - https://fontawesome.com License - https://fontawesome.com/license (Commercial License) Copyright 2023 Fonticons, Inc. --><path d="M340 104c28.71 0 52-23.29 52-52C392 23.29 368.7 0 340 0S288 23.29 288 52C288 80.71 311.3 104 340 104zM340 16c19.85 0 36 16.15 36 36c0 19.85-16.15 36-36 36c-19.85 0-36-16.15-36-36C304 32.15 320.1 16 340 16zM203.7 333.9c1.844-4.031 .0625-8.781-3.938-10.62c-4.031-1.875-8.781-.0938-10.62 3.938L146.9 419.5c-4.531 9.781-3.75 21.06 2.062 30.12C154.8 458.6 164.7 464 175.3 464c12.03-.0938 23.34-7.219 28.41-18.19l37.69-82.53c1.844-4 .0625-8.75-3.969-10.59c-3.906-1.844-8.75-.0625-10.59 3.969l-37.66 82.5C186.8 444.5 181.3 447.1 175.5 448c-5.312 0-10.12-2.562-13-7.031c-2.906-4.5-3.281-9.875-1-14.75L203.7 333.9zM568 416c-4.406 0-8 3.594-8 8c0 39.69-32.31 72-72 72h-480C3.594 496 0 499.6 0 504S3.594 512 8 512h480c48.53 0 88-39.47 88-88C576 419.6 572.4 416 568 416zM86.34 463.8C86.91 463.9 87.47 464 88 464c3.719 0 7.031-2.562 7.812-6.344l54.08-254.1c4.775-.8926 9.472-2.518 13.59-5.668l39.81-30.45c5.824-4.488 12.86-6.771 19.38-6.771c2.018 0 4.018 .2122 5.878 .6556l14.73 4.383l-32.66 76.28c-12.69 29.57-1.434 63.96 26.28 80.3l85 50.13l-17.37 50.92C298.1 443.1 313.4 464 335 464c13.97 0 26.32-9.078 30.49-22.41l21.51-64.29c5.875-20.75-2.875-43.13-21.62-54.38l-61.25-36.13l26.5-67.1l20.26 41.36c8.062 16.47 24.77 26.89 43.11 26.89L435.9 288l-27.78 166.7c-.7187 4.344 2.219 8.469 6.594 9.219C415.1 463.1 415.6 464 416 464c3.844 0 7.25-2.781 7.906-6.688l28.36-170.2c15.56-2.17 27.77-15.02 27.77-31.18c0-17.67-14.33-31.95-32.01-31.95l-43.9-.0393l-26.11-53.22c-12.5-25.5-35.5-44.12-61.75-50.87l-71.22-21.15c-7.486-1.822-15.07-2.691-22.59-2.693c-20.85 0-41.26 6.86-58.16 19.72L124.6 146.2C110.5 156.1 107.8 177.1 118.6 191.1C122.6 196.4 128.1 199.4 133.9 201.3l-53.67 253C79.25 458.7 82.03 462.9 86.34 463.8zM131.3 181.4c-2.611-3.396-3.742-7.609-3.186-11.86C128.7 165.3 130.9 161.5 134.3 158.9l39.68-30.41C188.1 117.7 204.8 112 222.4 112c6.314 0 12.64 .7617 18.04 2.055l71.81 21.28c21.9 5.633 41.11 21.49 51.37 42.43l26.12 53.25C392.4 236.5 398 240 404.1 240H448c8.822 0 16 7.178 16 16S456.8 272 448 272h-54.06c-12.14 0-23.37-7.047-28.71-17.95l-20.23-41.33c-2.693-5.504-8.279-8.967-14.37-8.967c-.2109 0-.4219 .0039-.6348 .0117c-6.334 .252-11.92 4.217-14.25 10.11l-26.47 67.05c-2.891 7.322-.0254 15.66 6.754 19.66l61.15 36.06c12.45 7.471 18.4 22.4 14.69 35.58l-21.61 64.58C348.1 443.5 342 448 335 448c-5.135 0-9.82-2.373-12.86-6.512c-3.037-4.139-3.898-9.32-2.484-13.84l17.37-50.92c2.449-7.182-.4805-15.09-7.016-18.95l-85-50.13c-20.72-12.22-29.19-38.11-19.7-60.23l32.63-76.25c1.797-4.199 1.715-8.965-.2266-13.1S252.2 150.8 247.8 149.5L232.2 144.9c-3.059-.7266-6.227-1.14-9.502-1.14c-10.35 0-20.76 3.634-29.18 10.12L153.8 184.3C150.9 186.5 147.6 187.6 144 187.6C139 187.6 134.4 185.4 131.3 181.4z"/></svg>

<svg xmlns="http://www.w3.org/2000/svg" viewBox="0 0 576 512"><!-- Font Awesome Pro 6.0.0-alpha2 by @fontawesome - https://fontawesome.com License - https://fontawesome.com/license (Commercial License) --><path d="M340 104C368.709 104 392 80.707 392 52C392 23.291 368.709 0 340 0S288 23.291 288 52C288 80.707 311.291 104 340 104ZM340 16C359.85 16 376 32.148 376 52C376 71.85 359.85 88 340 88C320.148 88 304 71.85 304 52C304 32.148 320.148 16 340 16ZM203.719 333.938C205.562 329.906 203.781 325.156 199.781 323.313C195.75 321.438 191 323.219 189.156 327.25L146.938 419.5C142.406 429.281 143.188 440.562 149 449.625C154.812 458.625 164.656 464 175.344 464H175.594C187.625 463.906 198.688 456.781 203.75 445.812L241.438 363.281C243.281 359.281 241.5 354.531 237.469 352.687C233.563 350.844 228.719 352.625 226.875 356.656L189.219 439.156C186.75 444.469 181.344 447.969 175.469 448H175.344C170.031 448 165.344 445.438 162.469 440.969C159.562 436.469 159.187 431.094 161.469 426.219L203.719 333.938ZM568 416C563.594 416 560 419.594 560 424C560 463.688 527.688 496 488 496H8C3.594 496 0 499.594 0 504S3.594 512 8 512H488C536.531 512 576 472.531 576 424C576 419.594 572.406 416 568 416ZM86.344 463.812C86.906 463.938 87.469 464 88 464C91.719 464 95.031 461.438 95.812 457.656L149.895 202.697C154.67 201.805 159.354 200.209 163.475 197.059L203.25 166.625C209.074 162.137 216.141 159.838 222.66 159.838C224.678 159.838 226.641 160.057 228.5 160.5L243.25 164.875L210.619 241.127C197.93 270.695 209.186 305.086 236.9 321.43L321.9 371.555L304.531 422.479C298.07 443.062 313.445 464 335.018 464C348.988 464 361.34 454.922 365.512 441.59L387.025 377.305C392.9 356.555 384.15 334.18 365.4 322.93L304.15 286.805L330.625 219.75L350.854 261.08C358.916 277.555 375.658 288 394 288H435.875L408.094 454.688C407.375 459.031 410.312 463.156 414.687 463.906C415.125 463.969 415.562 464 416 464C419.844 464 423.25 461.219 423.906 457.312L452.268 287.139C467.83 284.969 480 272.16 480 256C480 238.326 465.674 224 448 224H404.125L378 170.75C365.5 145.25 342.5 126.625 316.25 119.875L245 98.75C237.514 96.928 229.934 96.037 222.416 96.035C201.566 96.035 181.154 102.887 164.25 115.75L124.525 146.191C110.48 156.967 107.84 177.09 118.625 191.125C122.629 196.336 128.068 199.355 133.859 201.318L80.188 454.344C79.25 458.656 82.031 462.906 86.344 463.812ZM131.312 181.375C128.701 177.979 127.57 173.766 128.127 169.518C128.686 165.27 130.865 161.494 134.258 158.891L173.937 128.482C188.08 117.723 204.844 112.035 222.416 112.035C228.73 112.035 235.055 112.797 240.451 114.09L312.266 135.371C334.17 141.004 353.373 156.861 363.635 177.797L389.76 231.047C392.449 236.527 398.021 240 404.125 240H448C456.822 240 464 247.178 464 256S456.822 272 448 272H394C381.857 272 370.562 264.953 365.225 254.047L344.996 212.717C342.303 207.213 336.717 203.75 330.627 203.75C330.416 203.75 330.205 203.754 329.992 203.762C323.658 204.014 318.07 207.979 315.742 213.875L289.268 280.93C286.377 288.252 289.242 296.588 296.021 300.586L357.168 336.65C369.619 344.121 375.566 359.047 371.854 372.227L350.242 436.811C348.148 443.504 342.029 448 335.018 448C329.883 448 325.197 445.627 322.158 441.488C319.121 437.35 318.26 432.168 319.674 427.645L337.043 376.721C339.492 369.539 336.562 361.627 330.027 357.773L245.027 307.648C224.307 295.428 215.836 269.543 225.328 247.422L257.959 171.17C259.756 166.971 259.674 162.205 257.732 158.072S252.178 150.834 247.801 149.535L232.207 144.934C229.148 144.207 225.936 143.838 222.66 143.838C212.311 143.838 201.949 147.428 193.527 153.918L153.76 184.346C150.938 186.502 147.58 187.641 144.049 187.641C139.014 187.641 134.371 185.357 131.312 181.375Z"/></svg>
